X:92
T:I Bit the Bee and the Bee Bit Me
R:Reel
C:© Paul Gitlitz 2007 update Feb 2018
M:C|
K:Bb
DE|:"Bb"FB2c dcBc|df2g f3g-|"Gm"g2ga gfd2|"F"c2cd cBG2|!
"Bb"FB2c dcBc|df2g f3g-|"Gm"gfga gfd2|1"F"cBA2 "Bb"B2DE:|2"F"cBA2 "Bb"B2ba||!
|:"Gm"g2ga gfd2|"Bb"fdfg f2df|"Gm"g2ga bag2|"Bb"fed2 "F"c4|!
"Bb"FB2c dcBc|"Bb"df2g f3g-|"Gm"gfga gfd2|"F"cBA2 "Bb"B4:||
